src/shared/assets/image/calendar.svg

<svg width="23" height="24" viewBox="0 0 23 24" fill="none" xmlns="http://www.w3.org/2000/svg">
<path d="M7.88115 0.69812C8.53801 0.69812 9.07049 1.24163 9.07049 1.91208V3.12605H13.8279V1.91208C13.8279 1.24163 14.3604 0.69812 15.0172 0.69812C15.6741 0.69812 16.2066 1.24163 16.2066 1.91208V3.12605H19.7746C21.0883 3.12605 22.1533 4.21307 22.1533 5.55398V21.3355C22.1533 22.6764 21.0883 23.7634 19.7746 23.7634H3.12377C1.81006 23.7634 0.745087 22.6764 0.745087 21.3355V5.55398C0.745087 4.21307 1.81006 3.12605 3.12377 3.12605H6.69181V1.91208C6.69181 1.24163 7.22429 0.69812 7.88115 0.69812ZM6.69181 5.55398H3.12377V9.19587H19.7746V5.55398H16.2066V6.76794C16.2066 7.43839 15.6741 7.9819 15.0172 7.9819C14.3604 7.9819 13.8279 7.43839 13.8279 6.76794V5.55398H9.07049V6.76794C9.07049 7.43839 8.53801 7.9819 7.88115 7.9819C7.22429 7.9819 6.69181 7.43839 6.69181 6.76794V5.55398ZM19.7746 11.6238H3.12377V21.3355H19.7746V11.6238Z" fill="white" fill-opacity="0.870588"/>
</svg>

<svg width="23" height="24" fill="none" xmlns="http://www.w3.org/2000/svg"><path d="M7.88.7c.66 0 1.19.54 1.19 1.21v1.22h4.76V1.9c0-.67.53-1.21 1.19-1.21.65 0 1.19.54 1.19 1.21v1.22h3.56a2.4 2.4 0 0 1 2.38 2.42v15.79a2.4 2.4 0 0 1-2.38 2.42H3.12a2.4 2.4 0 0 1-2.37-2.42V5.55a2.4 2.4 0 0 1 2.37-2.42H6.7V1.9C6.7 1.24 7.22.7 7.9.7ZM6.7 5.55H3.12V9.2h16.65V5.55h-3.56v1.22A1.2 1.2 0 0 1 15 7.98a1.2 1.2 0 0 1-1.18-1.21V5.55H9.07v1.22a1.2 1.2 0 0 1-1.19 1.21A1.2 1.2 0 0 1 6.7 6.77V5.55Zm13.08 6.07H3.12v9.72h16.65v-9.72Z" fill="#fff" fill-opacity=".87"/></svg>
